polls/static/images/boton_juguemos.svg

<?xml version="1.0" encoding="UTF-8" standalone="no"?>
<!-- Created with Inkscape (http://www.inkscape.org/) -->

<svg
   xmlns:dc="http://purl.org/dc/elements/1.1/"
   xmlns:cc="http://creativecommons.org/ns#"
   xmlns:rdf="http://www.w3.org/1999/02/22-rdf-syntax-ns#"
   xmlns:svg="http://www.w3.org/2000/svg"
   xmlns="http://www.w3.org/2000/svg"
   xmlns:xlink="http://www.w3.org/1999/xlink"
   xmlns:sodipodi="http://sodipodi.sourceforge.net/DTD/sodipodi-0.dtd"
   xmlns:inkscape="http://www.inkscape.org/namespaces/inkscape"
   width="115.63572"
   height="35.327412"
   viewBox="0 0 30.595284 9.3470437"
   version="1.1"
   id="svg8"
   inkscape:version="0.92.4 (5da689c313, 2019-01-14)"
   sodipodi:docname="boton_juguemos.svg"
   inkscape:export-filename="C:\django\Read Praxis Project\ReadPraxisProject\polls\static\images\boton_juguemos.png"
   inkscape:export-xdpi="239.33327"
   inkscape:export-ydpi="239.33327">
  <defs
     id="defs2">
    <linearGradient
       inkscape:collect="always"
       id="linearGradient870">
      <stop
         style="stop-color:#ffffff;stop-opacity:1;"
         offset="0"
         id="stop866" />
      <stop
         style="stop-color:#000080;stop-opacity:1"
         offset="1"
         id="stop868" />
    </linearGradient>
    <linearGradient
       inkscape:collect="always"
       xlink:href="#linearGradient870"
       id="linearGradient872"
       x1="0"
       y1="297.09451"
       x2="26.505581"
       y2="289.01526"
       gradientUnits="userSpaceOnUse"
       gradientTransform="translate(-2.0448511,-0.6811674)" />
  </defs>
  <sodipodi:namedview
     id="base"
     pagecolor="#ffffff"
     bordercolor="#666666"
     borderopacity="1.0"
     inkscape:pageopacity="0.0"
     inkscape:pageshadow="2"
     inkscape:zoom="5.6"
     inkscape:cx="59.681336"
     inkscape:cy="38.125943"
     inkscape:document-units="mm"
     inkscape:current-layer="layer1"
     showgrid="false"
     units="px"
     inkscape:window-width="1366"
     inkscape:window-height="705"
     inkscape:window-x="-8"
     inkscape:window-y="-8"
     inkscape:window-maximized="1"
     fit-margin-top="0"
     fit-margin-left="0"
     fit-margin-right="0"
     fit-margin-bottom="0" />
  <metadata
     id="metadata5">
    <rdf:RDF>
      <cc:Work
         rdf:about="">
        <dc:format>image/svg+xml</dc:format>
        <dc:type
           rdf:resource="http://purl.org/dc/dcmitype/StillImage" />
        <dc:title></dc:title>
      </cc:Work>
    </rdf:RDF>
  </metadata>
  <g
     inkscape:label="Capa 1"
     inkscape:groupmode="layer"
     id="layer1"
     transform="translate(2.0448511,-288.38133)">
    <rect
       style="opacity:0.90499998;fill:url(#linearGradient872);fill-opacity:1;fill-rule:nonzero;stroke:#241c1c;stroke-width:0.02645833;stroke-miterlimit:4;stroke-dasharray:none;stroke-opacity:1"
       id="rect823"
       width="30.568825"
       height="9.3205862"
       x="-2.0316219"
       y="288.39456"
       rx="2.5"
       ry="2.5"
       inkscape:export-xdpi="166.03867"
       inkscape:export-ydpi="166.03867" />
    <path
       style="font-style:normal;font-variant:normal;font-weight:normal;font-stretch:normal;font-size:13.33333302px;line-height:1.25;font-family:Bahnschrift;-inkscape-font-specification:Bahnschrift;letter-spacing:0px;word-spacing:0px;fill:#000000;fill-opacity:1;stroke:none;stroke-width:0.99999994"
       d="m 30.792969,9.4101562 c -0.909345,0 -1.712277,0.2044998 -2.40625,0.6113278 -0.687992,0.400807 -1.220756,0.969204 -1.597657,1.705078 -0.376899,0.735849 -0.564453,1.587469 -0.564453,2.556641 v 3.849609 c 0,0.915326 0.191337,1.720091 0.574219,2.414063 0.382883,0.693972 0.921261,1.232343 1.615234,1.615234 0.699957,0.376895 1.510331,0.566407 2.431641,0.566407 0.909345,0 1.708493,-0.200731 2.396485,-0.601563 0.693973,-0.406803 1.228568,-0.978995 1.605468,-1.714844 0.3769,-0.741845 0.566406,-1.597234 0.566406,-2.566406 v -2.279297 h -4.523437 v 1.75 h 2.646484 v 0.564453 c 0,0.634155 -0.110677,1.18193 -0.332031,1.642579 -0.221353,0.460522 -0.534594,0.813176 -0.941406,1.058593 -0.406813,0.23937 -0.879541,0.359375 -1.417969,0.359375 -0.544411,0 -1.026535,-0.116286 -1.445312,-0.349609 -0.412796,-0.233323 -0.731649,-0.559744 -0.958985,-0.978516 -0.227336,-0.424768 -0.341797,-0.918125 -0.341797,-1.480469 v -3.849609 c 0,-0.616214 0.110677,-1.154585 0.332032,-1.615234 0.221353,-0.466646 0.536547,-0.828703 0.943359,-1.085938 0.406813,-0.25726 0.879541,-0.384765 1.417969,-0.384765 0.370917,0 0.729185,0.08244 1.076172,0.25 0.346986,0.161537 0.649001,0.401672 0.90625,0.71875 0.257249,0.31108 0.439188,0.684356 0.546875,1.121093 h 1.984375 C 35.157077,12.515355 34.870072,11.83628 34.445312,11.25 34.020552,10.663694 33.489617,10.211608 32.855469,9.8945312 32.227302,9.5714824 31.540786,9.4101562 30.792969,9.4101562 Z m 48.726562,0 c -0.909344,0 -1.710322,0.2007311 -2.404297,0.6015628 -0.693974,0.39486 -1.23235,0.957648 -1.615234,1.6875 -0.3769,0.723905 -0.566406,1.564281 -0.566406,2.521484 v 3.697266 c 0,0.957203 0.189506,1.801398 0.566406,2.53125 0.382884,0.723905 0.92126,1.28474 1.615234,1.685547 0.693975,0.394859 1.494953,0.59375 2.404297,0.59375 0.909345,0 1.710323,-0.198891 2.404297,-0.59375 0.693974,-0.400807 1.230522,-0.961642 1.607422,-1.685547 0.382881,-0.729852 0.574219,-1.574047 0.574219,-2.53125 v -3.697266 c 0,-0.957203 -0.191338,-1.797579 -0.574219,-2.521484 -0.3769,-0.729852 -0.913448,-1.29264 -1.607422,-1.6875 C 81.229854,9.6108873 80.428876,9.4101562 79.519531,9.4101562 Z m 11.648438,0.00586 c -0.975154,0 -1.809932,0.1500818 -2.503907,0.4492188 -0.693974,0.299112 -1.222957,0.73621 -1.58789,1.310547 -0.358952,0.56834 -0.539063,1.256819 -0.539063,2.064453 v 0.0078 c 0,0.921298 0.195122,1.63224 0.583985,2.134765 0.388865,0.496504 0.85598,0.839754 1.40039,1.03125 0.550393,0.185374 1.261315,0.354237 2.134766,0.503907 l 0.134766,0.02539 c 0.01799,0.005 0.0368,0.0078 0.05469,0.0078 0.02399,0 0.04461,0.0028 0.0625,0.0078 0.59227,0.107843 1.072442,0.227848 1.443359,0.359375 0.376895,0.125632 0.682693,0.322594 0.916016,0.591797 0.239295,0.263232 0.359375,0.621495 0.359375,1.076172 v 0.0078 c 0,0.640151 -0.260771,1.137277 -0.78125,1.490234 -0.520481,0.346986 -1.253979,0.521484 -2.199219,0.521484 -0.699958,0 -1.349011,-0.108785 -1.947265,-0.324218 -0.598252,-0.215383 -1.144073,-0.53801 -1.640625,-0.96875 l -1.140625,1.40039 c 0.424758,0.358879 0.878695,0.657115 1.363281,0.896485 0.490568,0.239269 1.01772,0.419377 1.580078,0.539062 0.562359,0.119685 1.156989,0.179688 1.785156,0.179688 v 0.0059 c 1.011049,0 1.874016,-0.146313 2.585938,-0.439453 0.717903,-0.299137 1.263725,-0.728672 1.640625,-1.291016 0.376899,-0.56834 0.566406,-1.251183 0.566406,-2.046875 V 18.9375 c 0,-0.855483 -0.180111,-1.526995 -0.539062,-2.017578 -0.35297,-0.496428 -0.795681,-0.856645 -1.328125,-1.078125 -0.526463,-0.221354 -1.184915,-0.412707 -1.97461,-0.574219 -0.02991,-0.0076 -0.06175,-0.01449 -0.09766,-0.01953 -0.03591,-0.0076 -0.0697,-0.01254 -0.09961,-0.01758 -0.02391,-0.005 -0.04638,-0.0078 -0.07031,-0.0078 -0.01794,-0.0076 -0.04052,-0.01449 -0.06445,-0.01953 C 90.589596,15.071597 90.060616,14.945857 89.677734,14.826172 89.300835,14.700515 88.98381,14.509188 88.726562,14.251953 88.4753,13.994693 88.349609,13.64204 88.349609,13.193359 v -0.0078 c 0,-0.65212 0.245761,-1.154855 0.736329,-1.507813 0.496551,-0.358954 1.190634,-0.537109 2.082031,-0.537109 0.496552,0 0.989901,0.09189 1.480469,0.277344 0.496549,0.179477 0.993685,0.451455 1.490234,0.816406 L 95.179688,10.78125 C 94.754929,10.476267 94.319662,10.224887 93.876953,10.027344 93.440229,9.8240304 92.995688,9.6721078 92.541016,9.5703125 92.092325,9.4685172 91.634607,9.4160156 91.167969,9.4160162 Z M 9.7207031,9.5449219 V 18.4375 c 0,0.801638 -0.1969496,1.424479 -0.5917969,1.867188 C 8.7400415,20.747396 8.190437,20.96875 7.4785156,20.96875 7.0597382,20.96875 6.6920744,20.88807 6.375,20.726562 6.0579261,20.565025 5.8159487,20.338062 5.6484375,20.044922 l -1.5,1.076172 c 0.3649346,0.508497 0.8376629,0.90435 1.4179687,1.185547 0.5803059,0.281171 1.2181355,0.421875 1.9121094,0.421875 0.8614849,0 1.5968127,-0.168889 2.2070313,-0.503907 0.6102181,-0.335017 1.0735511,-0.822739 1.3906251,-1.46289 0.317074,-0.640126 0.476562,-1.411096 0.476562,-2.314453 V 9.5449219 Z m 4.8906249,0 v 8.3281251 c 0,1.023017 0.180111,1.899029 0.539063,2.628906 0.358952,0.72388 0.88049,1.277265 1.5625,1.660156 0.687991,0.376895 1.513374,0.566407 2.476562,0.566407 0.96917,0 1.796383,-0.189512 2.484375,-0.566407 0.687992,-0.382891 1.211361,-0.936276 1.570313,-1.660156 0.358952,-0.729877 0.539062,-1.605889 0.539062,-2.628906 V 9.5449219 h -1.830078 v 8.3906251 c 0,0.951231 -0.241977,1.68654 -0.726563,2.207031 -0.478602,0.520466 -1.157677,0.78125 -2.037109,0.78125 -0.87345,0 -1.550694,-0.260784 -2.029297,-0.78125 -0.478603,-0.520491 -0.716797,-1.2558 -0.716797,-2.207031 V 9.5449219 Z m 23.22461,0 v 8.3281251 c -10e-7,1.023017 0.180108,1.899029 0.539062,2.628906 0.358952,0.72388 0.878539,1.277265 1.560547,1.660156 0.687992,0.376895 1.515328,0.566407 2.478515,0.566407 0.96917,0 1.796383,-0.189512 2.484376,-0.566407 0.687992,-0.382891 1.21136,-0.936276 1.570312,-1.660156 0.358952,-0.729877 0.539062,-1.605889 0.539062,-2.628906 V 9.5449219 h -1.830078 v 8.3906251 c 0,0.951231 -0.243929,1.68654 -0.728515,2.207031 -0.478602,0.520466 -1.155723,0.78125 -2.035157,0.78125 -0.873451,0 -1.550695,-0.260784 -2.029296,-0.78125 -0.478604,-0.520491 -0.716797,-1.2558 -0.716797,-2.207031 V 9.5449219 Z m 12.060546,0 V 22.59375 h 1.832032 6.550781 v -1.742188 h -6.550781 v -3.867187 h 5.5625 v -1.740234 h -5.5625 v -3.957032 h 6.550781 V 9.5449219 h -6.550781 z m 10.984375,0 V 22.59375 h 1.785157 v -8.822266 l 3.123046,7.009766 h 1.275391 L 70.1875,13.601562 v 8.992188 h 1.785156 V 9.5449219 h -1.71289 L 66.427734,18.160156 62.595703,9.5449219 Z m 37.107422,0 v 9.7011721 h 1.830078 V 9.5449219 Z m -18.46875,1.6699221 c 0.538429,0 1.011158,0.12177 1.417969,0.367187 0.412795,0.239295 0.729818,0.58257 0.951172,1.03125 0.227326,0.442709 0.341797,0.958617 0.341797,1.544922 v 3.822266 c 0,0.58628 -0.114471,1.104054 -0.341797,1.552734 -0.221354,0.442583 -0.538377,0.785833 -0.951172,1.03125 -0.406811,0.23937 -0.87954,0.359375 -1.417969,0.359375 -0.538429,0 -1.012986,-0.120005 -1.425781,-0.359375 -0.406821,-0.245291 -0.723846,-0.588541 -0.951172,-1.03125 -0.221354,-0.44868 -0.332031,-0.966454 -0.332031,-1.552734 v -3.822266 c 0,-0.586305 0.110677,-1.102213 0.332031,-1.544922 0.227336,-0.448604 0.544361,-0.79188 0.951172,-1.03125 0.412795,-0.245417 0.887352,-0.367187 1.425781,-0.367187 z M 0.41601562,13.279297 v 1.919922 H 2.3359375 V 13.279297 Z M 0.4609375,16.625 v 9.701172 H 2.2910156 V 16.625 Z m 97.4824215,4.046875 v 1.921875 h 1.919922 v -1.921875 z"
       transform="matrix(0.26458333,0,0,0.26458333,0,289.0625)"
       id="path825"
       inkscape:connector-curvature="0" />
  </g>
</svg>

<?xml version="1.0" encoding="UTF-8" standalone="no"?>
<!-- Created with Inkscape (http://www.inkscape.org/) -->

<svg
   xmlns:dc="http://purl.org/dc/elements/1.1/"
   xmlns:cc="http://creativecommons.org/ns#"
   xmlns:rdf="http://www.w3.org/1999/02/22-rdf-syntax-ns#"
   xmlns:svg="http://www.w3.org/2000/svg"
   xmlns="http://www.w3.org/2000/svg"
   xmlns:xlink="http://www.w3.org/1999/xlink"
   xmlns:sodipodi="http://sodipodi.sourceforge.net/DTD/sodipodi-0.dtd"
   xmlns:inkscape="http://www.inkscape.org/namespaces/inkscape"
   width="100"
   height="30"
   viewBox="0 0 26.458333 7.9374995"
   version="1.1"
   id="svg8"
   inkscape:version="0.92.4 (5da689c313, 2019-01-14)"
   sodipodi:docname="boton_juguemos.svg"
   inkscape:export-filename="C:\django\Read Praxis Project\ReadPraxisProject\polls\static\images\boton_juguemos.png"
   inkscape:export-xdpi="239.33327"
   inkscape:export-ydpi="239.33327">
  <defs
     id="defs2">
    <linearGradient
       inkscape:collect="always"
       id="linearGradient870">
      <stop
         style="stop-color:#ffffff;stop-opacity:1;"
         offset="0"
         id="stop866" />
      <stop
         style="stop-color:#000080;stop-opacity:1"
         offset="1"
         id="stop868" />
    </linearGradient>
    <linearGradient
       inkscape:collect="always"
       xlink:href="#linearGradient870"
       id="linearGradient872"
       x1="0"
       y1="297.09451"
       x2="26.505581"
       y2="289.01526"
       gradientUnits="userSpaceOnUse" />
  </defs>
  <sodipodi:namedview
     id="base"
     pagecolor="#ffffff"
     bordercolor="#666666"
     borderopacity="1.0"
     inkscape:pageopacity="0.0"
     inkscape:pageshadow="2"
     inkscape:zoom="5.6"
     inkscape:cx="40.16055"
     inkscape:cy="35.373022"
     inkscape:document-units="mm"
     inkscape:current-layer="layer1"
     showgrid="false"
     units="px"
     inkscape:window-width="1366"
     inkscape:window-height="705"
     inkscape:window-x="-8"
     inkscape:window-y="-8"
     inkscape:window-maximized="1" />
  <metadata
     id="metadata5">
    <rdf:RDF>
      <cc:Work
         rdf:about="">
        <dc:format>image/svg+xml</dc:format>
        <dc:type
           rdf:resource="http://purl.org/dc/dcmitype/StillImage" />
        <dc:title></dc:title>
      </cc:Work>
    </rdf:RDF>
  </metadata>
  <g
     inkscape:label="Capa 1"
     inkscape:groupmode="layer"
     id="layer1"
     transform="translate(0,-289.0625)">
    <rect
       style="opacity:0.90499998;fill:url(#linearGradient872);fill-opacity:1;fill-rule:nonzero;stroke:#241c1c;stroke-width:0.02645833;stroke-miterlimit:4;stroke-dasharray:none;stroke-opacity:1"
       id="rect823"
       width="26.505581"
       height="8.0792408"
       x="0"
       y="289.01526"
       rx="2.5"
       ry="2.5"
       inkscape:export-xdpi="95"
       inkscape:export-ydpi="95" />
    <path
       style="font-style:normal;font-variant:normal;font-weight:normal;font-stretch:normal;font-size:13.33333302px;line-height:1.25;font-family:Bahnschrift;-inkscape-font-specification:Bahnschrift;letter-spacing:0px;word-spacing:0px;fill:#000000;fill-opacity:1;stroke:none;stroke-width:0.99999994"
       d="M 30.792969 9.4101562 C 29.883624 9.4101562 29.080692 9.614656 28.386719 10.021484 C 27.698727 10.422291 27.165963 10.990688 26.789062 11.726562 C 26.412163 12.462411 26.224609 13.314031 26.224609 14.283203 L 26.224609 18.132812 C 26.224609 19.048138 26.415946 19.852903 26.798828 20.546875 C 27.181711 21.240847 27.720089 21.779218 28.414062 22.162109 C 29.114019 22.539004 29.924393 22.728516 30.845703 22.728516 C 31.755048 22.728516 32.554196 22.527785 33.242188 22.126953 C 33.936161 21.72015 34.470756 21.147958 34.847656 20.412109 C 35.224556 19.670264 35.414062 18.814875 35.414062 17.845703 L 35.414062 15.566406 L 30.890625 15.566406 L 30.890625 17.316406 L 33.537109 17.316406 L 33.537109 17.880859 C 33.537109 18.515014 33.426432 19.062789 33.205078 19.523438 C 32.983725 19.98396 32.670484 20.336614 32.263672 20.582031 C 31.856859 20.821401 31.384131 20.941406 30.845703 20.941406 C 30.301292 20.941406 29.819168 20.82512 29.400391 20.591797 C 28.987595 20.358474 28.668742 20.032053 28.441406 19.613281 C 28.21407 19.188513 28.099609 18.695156 28.099609 18.132812 L 28.099609 14.283203 C 28.099609 13.666989 28.210286 13.128618 28.431641 12.667969 C 28.652994 12.201323 28.968188 11.839266 29.375 11.582031 C 29.781813 11.324771 30.254541 11.197266 30.792969 11.197266 C 31.163886 11.197266 31.522154 11.279707 31.869141 11.447266 C 32.216127 11.608803 32.518142 11.848938 32.775391 12.166016 C 33.03264 12.477096 33.214579 12.850372 33.322266 13.287109 L 35.306641 13.287109 C 35.157077 12.515355 34.870072 11.83628 34.445312 11.25 C 34.020552 10.663694 33.489617 10.211608 32.855469 9.8945312 C 32.227302 9.5714824 31.540786 9.4101562 30.792969 9.4101562 z M 79.519531 9.4101562 C 78.610187 9.4101562 77.809209 9.6108873 77.115234 10.011719 C 76.42126 10.406579 75.882884 10.969367 75.5 11.699219 C 75.1231 12.423124 74.933594 13.2635 74.933594 14.220703 L 74.933594 17.917969 C 74.933594 18.875172 75.1231 19.719367 75.5 20.449219 C 75.882884 21.173124 76.42126 21.733959 77.115234 22.134766 C 77.809209 22.529625 78.610187 22.728516 79.519531 22.728516 C 80.428876 22.728516 81.229854 22.529625 81.923828 22.134766 C 82.617802 21.733959 83.15435 21.173124 83.53125 20.449219 C 83.914131 19.719367 84.105469 18.875172 84.105469 17.917969 L 84.105469 14.220703 C 84.105469 13.2635 83.914131 12.423124 83.53125 11.699219 C 83.15435 10.969367 82.617802 10.406579 81.923828 10.011719 C 81.229854 9.6108873 80.428876 9.4101562 79.519531 9.4101562 z M 91.167969 9.4160156 C 90.192815 9.4160156 89.358037 9.5660974 88.664062 9.8652344 C 87.970088 10.164346 87.441105 10.601444 87.076172 11.175781 C 86.71722 11.744121 86.537109 12.4326 86.537109 13.240234 L 86.537109 13.248047 C 86.537109 14.169345 86.732231 14.880287 87.121094 15.382812 C 87.509959 15.879316 87.977074 16.222566 88.521484 16.414062 C 89.071877 16.599436 89.782799 16.768299 90.65625 16.917969 L 90.791016 16.943359 C 90.809006 16.948399 90.827813 16.951172 90.845703 16.951172 C 90.869691 16.951172 90.890313 16.953945 90.908203 16.958984 C 91.500473 17.066827 91.980645 17.186832 92.351562 17.318359 C 92.728457 17.443991 93.034255 17.640953 93.267578 17.910156 C 93.506873 18.173388 93.626953 18.531651 93.626953 18.986328 L 93.626953 18.994141 C 93.626953 19.634292 93.366182 20.131418 92.845703 20.484375 C 92.325222 20.831361 91.591724 21.005859 90.646484 21.005859 C 89.946526 21.005859 89.297473 20.897074 88.699219 20.681641 C 88.100967 20.466258 87.555146 20.143631 87.058594 19.712891 L 85.917969 21.113281 C 86.342727 21.47216 86.796664 21.770396 87.28125 22.009766 C 87.771818 22.249035 88.29897 22.429143 88.861328 22.548828 C 89.423687 22.668513 90.018317 22.728516 90.646484 22.728516 L 90.646484 22.734375 C 91.657533 22.734375 92.5205 22.588062 93.232422 22.294922 C 93.950325 21.995785 94.496147 21.56625 94.873047 21.003906 C 95.249946 20.435566 95.439453 19.752723 95.439453 18.957031 L 95.439453 18.9375 C 95.439453 18.082017 95.259342 17.410505 94.900391 16.919922 C 94.547421 16.423494 94.10471 16.063277 93.572266 15.841797 C 93.045803 15.620443 92.387351 15.42909 91.597656 15.267578 C 91.567748 15.260019 91.535906 15.253086 91.5 15.248047 C 91.464094 15.240488 91.430299 15.235508 91.400391 15.230469 C 91.376479 15.225429 91.354015 15.222656 91.330078 15.222656 C 91.312138 15.215097 91.289562 15.208164 91.265625 15.203125 C 90.589596 15.071597 90.060616 14.945857 89.677734 14.826172 C 89.300835 14.700515 88.98381 14.509188 88.726562 14.251953 C 88.4753 13.994693 88.349609 13.64204 88.349609 13.193359 L 88.349609 13.185547 C 88.349609 12.533427 88.59537 12.030692 89.085938 11.677734 C 89.582489 11.31878 90.276572 11.140625 91.167969 11.140625 C 91.664521 11.140625 92.15787 11.23252 92.648438 11.417969 C 93.144987 11.597446 93.642123 11.869424 94.138672 12.234375 L 95.179688 10.78125 C 94.754929 10.476267 94.319662 10.224887 93.876953 10.027344 C 93.440229 9.8240304 92.995688 9.6721078 92.541016 9.5703125 C 92.092325 9.4685172 91.634607 9.4160156 91.167969 9.4160156 z M 9.7207031 9.5449219 L 9.7207031 18.4375 C 9.7207031 19.239138 9.5237535 19.861979 9.1289062 20.304688 C 8.7400415 20.747396 8.190437 20.96875 7.4785156 20.96875 C 7.0597382 20.96875 6.6920744 20.888074 6.375 20.726562 C 6.0579261 20.565025 5.8159487 20.338062 5.6484375 20.044922 L 4.1484375 21.121094 C 4.5133721 21.629591 4.9861004 22.025444 5.5664062 22.306641 C 6.1467121 22.587812 6.7845417 22.728516 7.4785156 22.728516 C 8.3400005 22.728516 9.0753283 22.559627 9.6855469 22.224609 C 10.295765 21.889592 10.759098 21.40187 11.076172 20.761719 C 11.393246 20.121593 11.552734 19.350623 11.552734 18.447266 L 11.552734 9.5449219 L 9.7207031 9.5449219 z M 14.611328 9.5449219 L 14.611328 17.873047 C 14.611328 18.896064 14.791439 19.772076 15.150391 20.501953 C 15.509343 21.225833 16.030881 21.779218 16.712891 22.162109 C 17.400882 22.539004 18.226265 22.728516 19.189453 22.728516 C 20.158623 22.728516 20.985836 22.539004 21.673828 22.162109 C 22.36182 21.779218 22.885189 21.225833 23.244141 20.501953 C 23.603093 19.772076 23.783203 18.896064 23.783203 17.873047 L 23.783203 9.5449219 L 21.953125 9.5449219 L 21.953125 17.935547 C 21.953125 18.886778 21.711148 19.622087 21.226562 20.142578 C 20.74796 20.663044 20.068885 20.923828 19.189453 20.923828 C 18.316003 20.923828 17.638759 20.663044 17.160156 20.142578 C 16.681553 19.622087 16.443359 18.886778 16.443359 17.935547 L 16.443359 9.5449219 L 14.611328 9.5449219 z M 37.835938 9.5449219 L 37.835938 17.873047 C 37.835937 18.896064 38.016046 19.772076 38.375 20.501953 C 38.733952 21.225833 39.253539 21.779218 39.935547 22.162109 C 40.623539 22.539004 41.450875 22.728516 42.414062 22.728516 C 43.383232 22.728516 44.210445 22.539004 44.898438 22.162109 C 45.58643 21.779218 46.109798 21.225833 46.46875 20.501953 C 46.827702 19.772076 47.007812 18.896064 47.007812 17.873047 L 47.007812 9.5449219 L 45.177734 9.5449219 L 45.177734 17.935547 C 45.177734 18.886778 44.933805 19.622087 44.449219 20.142578 C 43.970617 20.663044 43.293496 20.923828 42.414062 20.923828 C 41.540611 20.923828 40.863367 20.663044 40.384766 20.142578 C 39.906162 19.622087 39.667969 18.886778 39.667969 17.935547 L 39.667969 9.5449219 L 37.835938 9.5449219 z M 49.896484 9.5449219 L 49.896484 22.59375 L 51.728516 22.59375 L 58.279297 22.59375 L 58.279297 20.851562 L 51.728516 20.851562 L 51.728516 16.984375 L 57.291016 16.984375 L 57.291016 15.244141 L 51.728516 15.244141 L 51.728516 11.287109 L 58.279297 11.287109 L 58.279297 9.5449219 L 51.728516 9.5449219 L 49.896484 9.5449219 z M 60.880859 9.5449219 L 60.880859 22.59375 L 62.666016 22.59375 L 62.666016 13.771484 L 65.789062 20.78125 L 67.064453 20.78125 L 70.1875 13.601562 L 70.1875 22.59375 L 71.972656 22.59375 L 71.972656 9.5449219 L 70.259766 9.5449219 L 66.427734 18.160156 L 62.595703 9.5449219 L 60.880859 9.5449219 z M 97.988281 9.5449219 L 97.988281 19.246094 L 99.818359 19.246094 L 99.818359 9.5449219 L 97.988281 9.5449219 z M 79.519531 11.214844 C 80.05796 11.214844 80.530689 11.336614 80.9375 11.582031 C 81.350295 11.821326 81.667318 12.164601 81.888672 12.613281 C 82.115998 13.05599 82.230469 13.571898 82.230469 14.158203 L 82.230469 17.980469 C 82.230469 18.566749 82.115998 19.084523 81.888672 19.533203 C 81.667318 19.975786 81.350295 20.319036 80.9375 20.564453 C 80.530689 20.803823 80.05796 20.923828 79.519531 20.923828 C 78.981102 20.923828 78.506545 20.803823 78.09375 20.564453 C 77.686929 20.319162 77.369904 19.975912 77.142578 19.533203 C 76.921224 19.084523 76.810547 18.566749 76.810547 17.980469 L 76.810547 14.158203 C 76.810547 13.571898 76.921224 13.05599 77.142578 12.613281 C 77.369914 12.164677 77.686939 11.821401 78.09375 11.582031 C 78.506545 11.336614 78.981102 11.214844 79.519531 11.214844 z M 0.41601562 13.279297 L 0.41601562 15.199219 L 2.3359375 15.199219 L 2.3359375 13.279297 L 0.41601562 13.279297 z M 0.4609375 16.625 L 0.4609375 26.326172 L 2.2910156 26.326172 L 2.2910156 16.625 L 0.4609375 16.625 z M 97.943359 20.671875 L 97.943359 22.59375 L 99.863281 22.59375 L 99.863281 20.671875 L 97.943359 20.671875 z "
       transform="matrix(0.26458333,0,0,0.26458333,0,289.0625)"
       id="path825" />
  </g>
</svg>
